X: 106
T:Paddy's Pet (#302)
M:4/4
L:1/8
S:Patrick Stack, Chicago
R:Reel
K:G
(3DEF||G2 FG E2 (3DEF|GB (3BAB GBAF|G2 FG EFGA|(3Bcd ed BA A2|
(3GFE (3FED EB, (3B,A,B,|GB (3BAB GBAF|G2 FG EFGA|(3Bcd ed Bdgf||
eA (3AAA eA (3AAA|BG (3GGG BG (3GGG|e2 AA eAcA|(3Bcd ed Bdgf|
eBce dcBA|GFGA Bcdf|e2 ef gfed|(3Bcd ed (3BAG AF||

